images/50396269.svg

<?xml version="1.0" encoding="UTF-8"?>
<svg xmlns="http://www.w3.org/2000/svg" xmlns:xlink="http://www.w3.org/1999/xlink" width="300pt" height="300pt" viewBox="0 0 300 300" version="1.1">
<defs>
<g>
<symbol overflow="visible" id="glyph0-0">
<path style="stroke:none;" d="M 0.796875 2.828125 L 0.796875 -11.28125 L 8.796875 -11.28125 L 8.796875 2.828125 Z M 1.703125 1.9375 L 7.90625 1.9375 L 7.90625 -10.390625 L 1.703125 -10.390625 Z M 1.703125 1.9375 "/>
</symbol>
<symbol overflow="visible" id="glyph0-1">
<path style="stroke:none;" d="M 6.3125 -10.59375 C 5.164062 -10.59375 4.253906 -10.164062 3.578125 -9.3125 C 2.898438 -8.457031 2.5625 -7.296875 2.5625 -5.828125 C 2.5625 -4.359375 2.898438 -3.195312 3.578125 -2.34375 C 4.253906 -1.488281 5.164062 -1.0625 6.3125 -1.0625 C 7.457031 -1.0625 8.363281 -1.488281 9.03125 -2.34375 C 9.695312 -3.195312 10.03125 -4.359375 10.03125 -5.828125 C 10.03125 -7.296875 9.695312 -8.457031 9.03125 -9.3125 C 8.363281 -10.164062 7.457031 -10.59375 6.3125 -10.59375 Z M 6.3125 -11.875 C 7.945312 -11.875 9.253906 -11.328125 10.234375 -10.234375 C 11.210938 -9.140625 11.703125 -7.671875 11.703125 -5.828125 C 11.703125 -3.984375 11.210938 -2.507812 10.234375 -1.40625 C 9.253906 -0.3125 7.945312 0.234375 6.3125 0.234375 C 4.664062 0.234375 3.351562 -0.3125 2.375 -1.40625 C 1.394531 -2.507812 0.90625 -3.984375 0.90625 -5.828125 C 0.90625 -7.671875 1.394531 -9.140625 2.375 -10.234375 C 3.351562 -11.328125 4.664062 -11.875 6.3125 -11.875 Z M 6.3125 -11.875 "/>
</symbol>
<symbol overflow="visible" id="glyph0-2">
<path style="stroke:none;" d="M 1.578125 -11.671875 L 3.703125 -11.671875 L 8.875 -1.90625 L 8.875 -11.671875 L 10.40625 -11.671875 L 10.40625 0 L 8.28125 0 L 3.109375 -9.765625 L 3.109375 0 L 1.578125 0 Z M 1.578125 -11.671875 "/>
</symbol>
<symbol overflow="visible" id="glyph0-3">
<path style="stroke:none;" d="M 1.578125 -11.671875 L 3.15625 -11.671875 L 3.15625 -6.890625 L 8.890625 -6.890625 L 8.890625 -11.671875 L 10.46875 -11.671875 L 10.46875 0 L 8.890625 0 L 8.890625 -5.5625 L 3.15625 -5.5625 L 3.15625 0 L 1.578125 0 Z M 1.578125 -11.671875 "/>
</symbol>
</g>
</defs>
<g id="surface10481">
<rect x="0" y="0" width="300" height="300" style="fill:rgb(100%,100%,100%);fill-opacity:1;stroke:none;"/>
<path style="fill:none;stroke-width:1.2;stroke-linecap:butt;stroke-linejoin:miter;stroke:rgb(100%,0%,0%);stroke-opacity:1;stroke-miterlimit:10;" d="M 168.824219 191.609375 L 178.015625 174.835938 "/>
<path style="fill:none;stroke-width:1.2;stroke-linecap:butt;stroke-linejoin:miter;stroke:rgb(0%,0%,0%);stroke-opacity:1;stroke-miterlimit:10;" d="M 178.015625 174.835938 L 187.207031 158.0625 "/>
<path style="fill:none;stroke-width:1.2;stroke-linecap:butt;stroke-linejoin:miter;stroke:rgb(100%,0%,0%);stroke-opacity:1;stroke-miterlimit:10;" d="M 160.933594 187.28125 L 170.125 170.511719 "/>
<path style="fill:none;stroke-width:1.2;stroke-linecap:butt;stroke-linejoin:miter;stroke:rgb(0%,0%,0%);stroke-opacity:1;stroke-miterlimit:10;" d="M 170.125 170.511719 L 179.3125 153.738281 "/>
<path style=" stroke:none;fill-rule:nonzero;fill:rgb(100%,100%,100%);fill-opacity:1;" d="M 151.878906 179.945312 L 164.878906 179.945312 L 164.878906 198.945312 L 151.878906 198.945312 Z M 151.878906 179.945312 "/>
<g style="fill:rgb(100%,0%,0%);fill-opacity:1;">
  <use xlink:href="#glyph0-1" x="151.878906" y="194.796875"/>
</g>
<path style="fill:none;stroke-width:1.2;stroke-linecap:butt;stroke-linejoin:miter;stroke:rgb(0%,0%,0%);stroke-opacity:1;stroke-miterlimit:10;" d="M 183.261719 155.902344 L 173.332031 139.554688 "/>
<path style="fill:none;stroke-width:1.2;stroke-linecap:butt;stroke-linejoin:miter;stroke:rgb(0%,0%,100%);stroke-opacity:1;stroke-miterlimit:10;" d="M 173.332031 139.554688 L 163.402344 123.210938 "/>
<path style="fill:none;stroke-width:1.2;stroke-linecap:butt;stroke-linejoin:miter;stroke:rgb(0%,0%,0%);stroke-opacity:1;stroke-miterlimit:10;" d="M 183.261719 155.902344 L 221.5 155.046875 "/>
<path style="fill:none;stroke-width:1.2;stroke-linecap:butt;stroke-linejoin:miter;stroke:rgb(0%,0%,100%);stroke-opacity:1;stroke-miterlimit:10;" d="M 163.402344 123.210938 L 144.28125 123.636719 "/>
<path style="fill:none;stroke-width:1.2;stroke-linecap:butt;stroke-linejoin:miter;stroke:rgb(0%,0%,0%);stroke-opacity:1;stroke-miterlimit:10;" d="M 144.28125 123.636719 L 125.160156 124.0625 "/>
<path style=" stroke:none;fill-rule:nonzero;fill:rgb(100%,100%,100%);fill-opacity:1;" d="M 151.402344 113.710938 L 175.402344 113.710938 L 175.402344 132.710938 L 151.402344 132.710938 Z M 151.402344 113.710938 "/>
<g style="fill:rgb(0%,0%,100%);fill-opacity:1;">
  <use xlink:href="#glyph0-2" x="151.402344" y="128.5625"/>
  <use xlink:href="#glyph0-3" x="163.371094" y="128.5625"/>
</g>
<path style="fill:none;stroke-width:1.2;stroke-linecap:butt;stroke-linejoin:miter;stroke:rgb(0%,0%,0%);stroke-opacity:1;stroke-miterlimit:10;" d="M 125.160156 124.0625 L 113.578125 108.847656 "/>
<path style="fill:none;stroke-width:1.2;stroke-linecap:butt;stroke-linejoin:miter;stroke:rgb(0%,0%,100%);stroke-opacity:1;stroke-miterlimit:10;" d="M 113.578125 108.847656 L 101.992188 93.628906 "/>
<path style="fill:none;stroke-width:1.2;stroke-linecap:butt;stroke-linejoin:miter;stroke:rgb(0%,0%,0%);stroke-opacity:1;stroke-miterlimit:10;" d="M 125.160156 124.0625 L 103.375 155.503906 "/>
<path style="fill:none;stroke-width:1.2;stroke-linecap:butt;stroke-linejoin:miter;stroke:rgb(0%,0%,0%);stroke-opacity:1;stroke-miterlimit:10;" d="M 115.585938 122.082031 L 98.15625 147.234375 "/>
<path style="fill:none;stroke-width:1.2;stroke-linecap:butt;stroke-linejoin:miter;stroke:rgb(0%,0%,100%);stroke-opacity:1;stroke-miterlimit:10;" d="M 101.992188 93.628906 L 65.886719 106.257812 "/>
<path style=" stroke:none;fill-rule:nonzero;fill:rgb(100%,100%,100%);fill-opacity:1;" d="M 89.992188 84.128906 L 113.992188 84.128906 L 113.992188 103.128906 L 89.992188 103.128906 Z M 89.992188 84.128906 "/>
<g style="fill:rgb(0%,0%,100%);fill-opacity:1;">
  <use xlink:href="#glyph0-2" x="89.992188" y="98.980469"/>
  <use xlink:href="#glyph0-3" x="101.960938" y="98.980469"/>
</g>
<path style="fill:none;stroke-width:1.2;stroke-linecap:butt;stroke-linejoin:miter;stroke:rgb(0%,0%,100%);stroke-opacity:1;stroke-miterlimit:10;" d="M 65.886719 106.257812 L 66.316406 125.378906 "/>
<path style="fill:none;stroke-width:1.2;stroke-linecap:butt;stroke-linejoin:miter;stroke:rgb(0%,0%,0%);stroke-opacity:1;stroke-miterlimit:10;" d="M 66.316406 125.378906 L 66.742188 144.496094 "/>
<path style=" stroke:none;fill-rule:nonzero;fill:rgb(100%,100%,100%);fill-opacity:1;" d="M 53.886719 96.757812 L 77.886719 96.757812 L 77.886719 115.757812 L 53.886719 115.757812 Z M 53.886719 96.757812 "/>
<g style="fill:rgb(0%,0%,100%);fill-opacity:1;">
  <use xlink:href="#glyph0-2" x="53.886719" y="111.609375"/>
  <use xlink:href="#glyph0-3" x="65.855469" y="111.609375"/>
</g>
<path style="fill:none;stroke-width:1.2;stroke-linecap:butt;stroke-linejoin:miter;stroke:rgb(0%,0%,0%);stroke-opacity:1;stroke-miterlimit:10;" d="M 66.742188 144.496094 L 103.375 155.503906 "/>
<path style="fill:none;stroke-width:1.2;stroke-linecap:butt;stroke-linejoin:miter;stroke:rgb(0%,0%,0%);stroke-opacity:1;stroke-miterlimit:10;" d="M 66.742188 144.496094 L 44.953125 175.9375 "/>
<path style="fill:none;stroke-width:1.2;stroke-linecap:butt;stroke-linejoin:miter;stroke:rgb(0%,0%,0%);stroke-opacity:1;stroke-miterlimit:10;" d="M 71.960938 152.765625 L 54.53125 177.917969 "/>
<path style="fill:none;stroke-width:1.2;stroke-linecap:butt;stroke-linejoin:miter;stroke:rgb(0%,0%,0%);stroke-opacity:1;stroke-miterlimit:10;" d="M 103.375 155.503906 L 104.226562 193.742188 "/>
<path style="fill:none;stroke-width:1.2;stroke-linecap:butt;stroke-linejoin:miter;stroke:rgb(0%,0%,0%);stroke-opacity:1;stroke-miterlimit:10;" d="M 104.226562 193.742188 L 68.121094 206.371094 "/>
<path style="fill:none;stroke-width:1.2;stroke-linecap:butt;stroke-linejoin:miter;stroke:rgb(0%,0%,0%);stroke-opacity:1;stroke-miterlimit:10;" d="M 97.644531 186.511719 L 68.761719 196.613281 "/>
<path style="fill:none;stroke-width:1.2;stroke-linecap:butt;stroke-linejoin:miter;stroke:rgb(0%,0%,0%);stroke-opacity:1;stroke-miterlimit:10;" d="M 68.121094 206.371094 L 44.953125 175.9375 "/>
<path style="fill:none;stroke-width:1.2;stroke-linecap:butt;stroke-linejoin:miter;stroke:rgb(0%,0%,0%);stroke-opacity:1;stroke-miterlimit:10;" d="M 221.5 155.046875 L 254.191406 135.1875 "/>
<path style="fill:none;stroke-width:1.2;stroke-linecap:butt;stroke-linejoin:miter;stroke:rgb(0%,0%,0%);stroke-opacity:1;stroke-miterlimit:10;" d="M 255.046875 173.429688 L 221.5 155.046875 "/>
<path style="fill:none;stroke-width:1.2;stroke-linecap:butt;stroke-linejoin:miter;stroke:rgb(0%,0%,0%);stroke-opacity:1;stroke-miterlimit:10;" d="M 254.191406 135.1875 L 255.046875 173.429688 "/>
</g>
</svg>

<svg xmlns="http://www.w3.org/2000/svg" xmlns:xlink="http://www.w3.org/1999/xlink" width="300pt" height="300pt" viewBox="0 0 300 300"><defs><symbol overflow="visible"><path d="M.797 2.828v-14.11h8V2.83zm.906-.89h6.203v-12.33H1.703zm0 0"/></symbol><symbol overflow="visible" id="a"><path d="M6.313-10.594c-1.15 0-2.06.43-2.735 1.28-.68.857-1.015 2.017-1.015 3.486 0 1.47.335 2.633 1.015 3.484.676.856 1.586 1.28 2.735 1.28 1.144.002 2.05-.424 2.718-1.28.665-.85 1-2.015 1-3.484 0-1.47-.335-2.63-1-3.484-.667-.852-1.573-1.282-2.717-1.282zm0-1.28c1.632 0 2.94.546 3.92 1.64.978 1.093 1.47 2.562 1.47 4.406 0 1.844-.492 3.32-1.47 4.422-.98 1.093-2.288 1.64-3.92 1.64-1.65 0-2.96-.546-3.938-1.64-.98-1.102-1.47-2.578-1.47-4.422 0-1.844.49-3.313 1.47-4.406.977-1.094 2.29-1.64 3.938-1.64zm0 0"/></symbol><symbol overflow="visible" id="b"><path d="M1.578-11.672h2.125l5.172 9.766v-9.766h1.53V0H8.282L3.11-9.766V0H1.577zm0 0"/></symbol><symbol overflow="visible" id="c"><path d="M1.578-11.672h1.578v4.78H8.89v-4.78h1.58V0H8.89v-5.563H3.157V0H1.578zm0 0"/></symbol></defs><g><path fill="#fff" d="M0 0h300v300H0z"/><path d="M168.824 191.61l9.192-16.774" stroke-width="1.2" stroke="#f00" stroke-miterlimit="10" fill="none"/><path d="M178.016 174.836l9.19-16.774" stroke-width="1.2" stroke="#000" stroke-miterlimit="10" fill="none"/><path d="M160.934 187.28l9.19-16.768" stroke-width="1.2" stroke="#f00" stroke-miterlimit="10" fill="none"/><path d="M170.125 170.512l9.188-16.774" stroke-width="1.2" stroke="#000" stroke-miterlimit="10" fill="none"/><path d="M151.88 179.945h13v19h-13zm0 0" fill="#fff"/><use xlink:href="#a" x="151.879" y="194.797" fill="#f00"/><path d="M183.262 155.902l-9.93-16.347" stroke-width="1.2" stroke="#000" stroke-miterlimit="10" fill="none"/><path d="M173.332 139.555l-9.93-16.344" stroke-width="1.2" stroke="#00f" stroke-miterlimit="10" fill="none"/><path d="M183.262 155.902l38.238-.855" stroke-width="1.2" stroke="#000" stroke-miterlimit="10" fill="none"/><path d="M163.402 123.21l-19.12.427" stroke-width="1.2" stroke="#00f" stroke-miterlimit="10" fill="none"/><path d="M144.28 123.637l-19.12.425" stroke-width="1.2" stroke="#000" stroke-miterlimit="10" fill="none"/><path d="M151.402 113.71h24v19h-24zm0 0" fill="#fff"/><g fill="#00f"><use xlink:href="#b" x="151.402" y="128.563"/><use xlink:href="#c" x="163.371" y="128.563"/></g><path d="M125.16 124.063l-11.582-15.215" stroke-width="1.2" stroke="#000" stroke-miterlimit="10" fill="none"/><path d="M113.578 108.848l-11.586-15.22" stroke-width="1.2" stroke="#00f" stroke-miterlimit="10" fill="none"/><path d="M125.16 124.063l-21.785 31.44M115.586 122.082l-17.43 25.152" stroke-width="1.2" stroke="#000" stroke-miterlimit="10" fill="none"/><path d="M101.992 93.63l-36.105 12.628" stroke-width="1.2" stroke="#00f" stroke-miterlimit="10" fill="none"/><path d="M89.992 84.13h24v19h-24zm0 0" fill="#fff"/><g fill="#00f"><use xlink:href="#b" x="89.992" y="98.98"/><use xlink:href="#c" x="101.961" y="98.98"/></g><path d="M65.887 106.258l.43 19.12" stroke-width="1.2" stroke="#00f" stroke-miterlimit="10" fill="none"/><path d="M66.316 125.38l.426 19.116" stroke-width="1.2" stroke="#000" stroke-miterlimit="10" fill="none"/><path d="M53.887 96.758h24v19h-24zm0 0" fill="#fff"/><g fill="#00f"><use xlink:href="#b" x="53.887" y="111.609"/><use xlink:href="#c" x="65.855" y="111.609"/></g><path d="M66.742 144.496l36.633 11.008M66.742 144.496l-21.79 31.44M71.96 152.766l-17.43 25.152M103.375 155.504l.852 38.238M104.227 193.742l-36.106 12.63M97.645 186.512l-28.883 10.1M68.12 206.37l-23.167-30.433M221.5 155.047l32.69-19.86M255.047 173.43L221.5 155.047M254.19 135.188l.857 38.242" stroke-width="1.2" stroke="#000" stroke-miterlimit="10" fill="none"/></g></svg>
